docs/svg/wds-icons-quiz-tiny.svg

<svg xmlns="http://www.w3.org/2000/svg" viewBox="0 0 12 12">
  <path d="M3.00600272,2.29889593 C3.73413813,1.79626732 4.59298109,1.47023363 5.52,1.38332644 L5.52,0.5 C5.52,0.223857625 5.74385763,1.25027544e-10 6.02,1.25027544e-10 C6.29614237,1.25027544e-10 6.52,0.223857625 6.52,0.5 L6.52,1.38452783 C6.69079269,1.4010591 6.86117595,1.42574905 7.02884739,1.45799355 C7.57119458,1.56229109 7.92630398,2.08650021 7.82200645,2.62884739 C7.71770891,3.17119458 7.19349979,3.52630398 6.65115261,3.42200645 C6.44109823,3.38161137 6.22498448,3.36 6.02,3.36 C4.19228475,3.36 2.7,4.85228475 2.7,6.68 C2.7,8.51390657 4.18847118,10 6.02,10 C7.62448863,10 8.98248509,8.86644703 9.27757555,7.31333935 C9.38066538,6.77076131 9.9040826,6.41448572 10.4466606,6.51757555 C10.9892387,6.62066538 11.3455143,7.1440826 11.2424245,7.68666065 C10.7686558,10.18018 8.58851137,12 6.02,12 C3.08461682,12 0.7,9.61919247 0.7,6.68 C0.7,5.22580507 1.28723983,3.90554273 2.23691285,2.94401963 L1.5,2.20710678 L0.853553391,2.85355339 C0.658291245,3.04881554 0.341708755,3.04881554 0.146446609,2.85355339 C-0.0488155364,2.65829124 -0.0488155364,2.34170876 0.146446609,2.14644661 L2.14644661,0.146446609 C2.34170876,-0.0488155364 2.65829124,-0.0488155364 2.85355339,0.146446609 C3.04881554,0.341708755 3.04881554,0.658291245 2.85355339,0.853553391 L2.20710678,1.5 L3.00600272,2.29889593 Z M6.37355339,7.71355339 C6.17829124,7.90881554 5.86170876,7.90881554 5.66644661,7.71355339 L4.30644661,6.35355339 C4.11118446,6.15829124 4.11118446,5.84170876 4.30644661,5.64644661 C4.50170876,5.45118446 4.81829124,5.45118446 5.01355339,5.64644661 L6.02,6.65289322 L10.6664466,2.00644661 C10.8617088,1.81118446 11.1782912,1.81118446 11.3735534,2.00644661 C11.5688155,2.20170876 11.5688155,2.51829124 11.3735534,2.71355339 L6.37355339,7.71355339 Z"/>
</svg>

<svg xmlns="http://www.w3.org/2000/svg" viewBox="0 0 12 12">
  <path d="M3.006 2.299a5.287 5.287 0 0 1 2.514-.916V.5a.5.5 0 0 1 1 0v.885c.17.016.341.04.509.073a1 1 0 0 1-.378 1.964 3.384 3.384 0 0 0-.631-.062A3.328 3.328 0 0 0 2.7 6.68 3.321 3.321 0 0 0 6.02 10a3.307 3.307 0 0 0 3.258-2.687 1 1 0 1 1 1.964.374A5.307 5.307 0 0 1 6.02 12 5.321 5.321 0 0 1 .7 6.68c0-1.454.587-2.774 1.537-3.736L1.5 2.207l-.646.647a.5.5 0 1 1-.708-.708l2-2a.5.5 0 1 1 .708.708l-.647.646.799.799zm3.368 5.415a.5.5 0 0 1-.708 0l-1.36-1.36a.5.5 0 1 1 .708-.708L6.02 6.653l4.646-4.647a.5.5 0 0 1 .708.708l-5 5z"/>
</svg>
